communes/5889.svg

<?xml version="1.0" encoding="UTF-8"?>
<svg version="1.0" viewBox="0 0 603 763" xmlns="http://www.w3.org/2000/svg" xmlns:cc="http://creativecommons.org/ns#" xmlns:dc="http://purl.org/dc/elements/1.1/" xmlns:rdf="http://www.w3.org/1999/02/22-rdf-syntax-ns#" xmlns:xlink="http://www.w3.org/1999/xlink">
<metadata>
<rdf:RDF>
<cc:Work rdf:about="">
<dc:format>image/svg+xml</dc:format>
<dc:type rdf:resource="http://purl.org/dc/dcmitype/StillImage"/>
<dc:date>07-AUG-2006</dc:date>
<dc:creator>
<cc:Agent>
<dc:title>Jérôme BLUM (wagner51)</dc:title>
</cc:Agent>
</dc:creator>
<cc:license rdf:resource="http://creativecommons.org/licenses/GPL/2.0/"/>
<dc:coverage/>
<dc:description>Gabarit pour le Projet:Blasons de WIkipédia</dc:description>
<dc:subject>
<rdf:Bag>
<rdf:li>blason suisse modèle gabarit projet blasons</rdf:li>
</rdf:Bag>
</dc:subject>
<dc:language>fr</dc:language>
<dc:title>Gabrit d'un blason suisse</dc:title>
</cc:Work>
<cc:License rdf:about="http://creativecommons.org/licenses/GPL/2.0/">
<cc:permits rdf:resource="http://web.resource.org/cc/Reproduction"/>
<cc:permits rdf:resource="http://web.resource.org/cc/Distribution"/>
<cc:requires rdf:resource="http://web.resource.org/cc/Notice"/>
<cc:permits rdf:resource="http://web.resource.org/cc/DerivativeWorks"/>
<cc:requires rdf:resource="http://web.resource.org/cc/ShareAlike"/>
<cc:requires rdf:resource="http://web.resource.org/cc/SourceCode"/>
</cc:License>
</rdf:RDF>
</metadata>
<defs>
<radialGradient id="a" cx="858.04" cy="579.93" r="300" gradientTransform="matrix(1.215 1.5316e-24 1.4647e-23 1.2667 -839.19 -490.49)" gradientUnits="userSpaceOnUse">
<stop stop-color="#fff" stop-opacity=".31373" offset="0"/>
<stop stop-color="#fff" stop-opacity=".25098" offset=".19"/>
<stop stop-color="#6b6b6b" stop-opacity=".12549" offset=".6"/>
<stop stop-opacity=".12549" offset="1"/>
</radialGradient>
</defs>
<desc>Coat of Arms of Canton of Freiburg (Fribourg)</desc>
<g>
<path d="m1.5 1.5v458.87c0 166.31 134.31 301.13 300 301.13 165.69 0 300-134.82 300-301.13v-458.87h-600z" fill="#e20909"/>
<path d="m1.5 1.5v458.87c0 166.31 134.31 301.13 300 301.13v-760h-300z" fill="#fff"/>
<line x1="301.5" x2="301.5" y1="1.5" y2="761.5" fill="none" stroke="#000" stroke-width="3"/>
<polygon transform="translate(-.037997 -.045)" points="370.19 257.6 370.19 289.83 343.38 289.83 343.38 257.6 316.17 257.6 316.17 289.83 301.54 289.83 301.54 317.3 393.56 317.3 393.56 257.6" fill="#fff" stroke="#000" stroke-width="3"/>
<rect x="301.5" y="317.25" width="92.024" height="9.772" fill="#fff" stroke="#000" stroke-width="3"/>
<path d="m301.5 327.03v113c16.251 0 29.425 13.174 29.425 29.425v55.23h62.6v-197.66h-92.025z" fill="#fff" stroke="#000" stroke-width="3"/>
<rect x="330.92" y="524.69" width="62.6" height="35.569" fill="#fff" stroke="#000" stroke-width="3"/>
<path d="m310.04 444.07c-2.685-0.902-5.553-1.398-8.54-1.398v-24.565c7.237 0 11.384 6.603 11.384 6.603l-2.843 19.358-1e-3 2e-3z" fill="#fff" stroke="#000" stroke-width="3"/>
<path d="m319.15 449.32c-2.633-2.31-5.718-4.107-9.109-5.248l1e-3 -2e-3 2.448-16.677s8.715-0.304 12.412 7.224l-5.748 14.702-4e-3 1e-3z" fill="#fff" stroke="#000" stroke-width="3"/>
<path d="m326.29 459.31c-1.584-3.867-4.047-7.278-7.14-9.991l4e-3 -1e-3 5.748-14.702s15.98 1.585 15.057 21.923l-13.665 2.773-4e-3 -2e-3z" fill="#fff" stroke="#000" stroke-width="3"/>
<path d="m328.28 469.46c0-3.592-0.713-7.015-1.995-10.146l4e-3 2e-3 13.665-2.773s4.49 6.208 2.904 18.094h-14.578v-5.177z" fill="#fff" stroke="#000" stroke-width="3"/>
<path d="m342.86 474.63s10.697 10.697 0 22.848h-14.578v-22.848h14.578z" fill="#fff" stroke="#000" stroke-width="3"/>
<rect x="328.28" y="497.48" width="14.578" height="17.564" fill="#fff" stroke="#000" stroke-width="3"/>
<path d="m342.86 515.04h1.453c3.17 0 5.15 1.188 5.15 4.358v12.282c0 2.905-1.98 3.565-5.15 3.565h-16.031v-20.206h14.578v1e-3z" fill="#fff" stroke="#000" stroke-width="3"/>
<rect x="328.28" y="535.25" width="16.031" height="25.005" fill="#fff" stroke="#000" stroke-width="3"/>
<polygon transform="translate(-.037997 -.045)" points="491.29 126.95 491.29 157.85 457.61 157.85 457.61 126.95 430.41 126.95 430.41 157.85 396.73 157.85 396.73 126.95 373.36 126.95 373.36 185.32 514.67 185.32 514.67 126.95" fill="#fff" stroke="#000" stroke-width="3"/>
<rect x="387.32" y="185.27" width="113.31" height="9.773" fill="#fff" stroke="#000" stroke-width="3"/>
<rect x="384.68" y="195.05" width="118.6" height="18.225" fill="#fff" stroke="#000" stroke-width="3"/>
<rect x="393.52" y="213.27" width="100.9" height="334.13" fill="#fff" stroke="#000" stroke-width="3"/>
<rect x="393.52" y="547.4" width="100.9" height="27.998" fill="#fff" stroke="#000" stroke-width="3"/>
<path d="m443.97 331.96c-4.668 0-8.453 3.785-8.453 8.452v35.042h16.904v-35.042c0-4.667-3.784-8.452-8.451-8.452z"/>
<path d="m443.97 238.89c-4.668 0-8.453 3.784-8.453 8.452v40.853h16.904v-40.853c0-4.668-3.784-8.452-8.451-8.452z"/>
<polygon transform="translate(-.037997 -.045)" points="232.89 257.6 232.89 289.83 259.7 289.83 259.7 257.6 286.9 257.6 286.9 289.83 301.54 289.83 301.54 317.3 209.51 317.3 209.51 257.6" fill="#e20909" stroke="#000" stroke-width="3"/>
<rect x="209.47" y="317.25" width="92.025" height="9.772" fill="#e20909" stroke="#000" stroke-width="3"/>
<path d="m301.5 327.03v113c-16.251 0-29.425 13.174-29.425 29.425v55.23h-62.6v-197.66h92.025z" fill="#e20909" stroke="#000" stroke-width="3"/>
<rect x="209.47" y="524.69" width="62.6" height="35.569" fill="#e20909" stroke="#000" stroke-width="3"/>
<path d="m292.96 444.07c2.684-0.902 5.553-1.398 8.54-1.398v-24.565c-7.238 0-11.384 6.603-11.384 6.603l2.843 19.358 1e-3 2e-3z" fill="#e20909" stroke="#000" stroke-width="3"/>
<path d="m283.85 449.32c2.632-2.31 5.718-4.107 9.109-5.248l-1e-3 -2e-3 -2.448-16.677s-8.715-0.304-12.412 7.224l5.749 14.702 3e-3 1e-3z" fill="#e20909" stroke="#000" stroke-width="3"/>
<path d="m276.71 459.31c1.584-3.867 4.046-7.278 7.14-9.991l-3e-3 -1e-3 -5.749-14.702s-15.98 1.585-15.056 21.923l13.664 2.773 4e-3 -2e-3z" fill="#e20909" stroke="#000" stroke-width="3"/>
<path d="m274.72 469.46c0-3.592 0.712-7.015 1.995-10.146l-4e-3 2e-3 -13.664-2.773s-4.49 6.208-2.905 18.094h14.579v-5.177h-1e-3z" fill="#e20909" stroke="#000" stroke-width="3"/>
<path d="m260.14 474.63s-10.698 10.697 0 22.848h14.579v-22.848h-14.579z" fill="#e20909" stroke="#000" stroke-width="3"/>
<rect x="260.14" y="497.48" width="14.579" height="17.564" fill="#e20909" stroke="#000" stroke-width="3"/>
<path d="m260.14 515.04h-1.453c-3.169 0-5.15 1.188-5.15 4.358v12.282c0 2.905 1.981 3.565 5.15 3.565h16.032v-20.206h-14.579v1e-3z" fill="#e20909" stroke="#000" stroke-width="3"/>
<rect x="258.68" y="535.25" width="16.032" height="25.005" fill="#e20909" stroke="#000" stroke-width="3"/>
<polygon transform="translate(-.037997 -.045)" points="111.78 126.95 111.78 157.85 145.46 157.85 145.46 126.95 172.67 126.95 172.67 157.85 206.34 157.85 206.34 126.95 229.72 126.95 229.72 185.32 88.407 185.32 88.407 126.95" fill="#e20909" stroke="#000" stroke-width="3"/>
<rect x="102.37" y="185.27" width="113.31" height="9.773" fill="#e20909" stroke="#000" stroke-width="3"/>
<rect x="99.728" y="195.05" width="118.6" height="18.225" fill="#e20909" stroke="#000" stroke-width="3"/>
<rect x="108.58" y="213.27" width="100.9" height="334.13" fill="#e20909" stroke="#000" stroke-width="3"/>
<rect x="108.58" y="547.4" width="100.9" height="27.998" fill="#e20909" stroke="#000" stroke-width="3"/>
<path d="m159.02 331.96c4.668 0 8.452 3.785 8.452 8.452v35.042h-16.904v-35.042c0-4.667 3.785-8.452 8.452-8.452z"/>
<path d="m159.02 238.89c4.668 0 8.452 3.784 8.452 8.452v40.853h-16.904v-40.853c0-4.668 3.785-8.452 8.452-8.452z"/>
</g>
<g>
<path d="m1.5 1.5v458.87c0 166.31 134.31 301.13 300 301.13 165.69 0 300-134.82 300-301.13v-458.87h-600z" fill="url(#a)"/>
<path d="m1.5 1.5v458.87c0 166.31 134.31 301.13 300 301.13 165.69 0 300-134.82 300-301.13v-458.87h-600z" fill="none" stroke="#000" stroke-width="3"/>
</g>
</svg>

<?xml version="1.0" encoding="UTF-8" standalone="no"?>
<svg
   xmlns:dc="http://purl.org/dc/elements/1.1/"
   xmlns:cc="http://creativecommons.org/ns#"
   xmlns:rdf="http://www.w3.org/1999/02/22-rdf-syntax-ns#"
   xmlns:svg="http://www.w3.org/2000/svg"
   xmlns="http://www.w3.org/2000/svg"
   xmlns:xlink="http://www.w3.org/1999/xlink"
   xmlns:sodipodi="http://sodipodi.sourceforge.net/DTD/sodipodi-0.dtd"
   xmlns:inkscape="http://www.inkscape.org/namespaces/inkscape"
   height="763"
   width="603"
   version="1.0"
   id="svg20"
   sodipodi:version="0.32"
   inkscape:version="0.46"
   sodipodi:docname="La_Tour_de_Peilz-coat_of_arms.svg"
   sodipodi:docbase="C:\Documents and Settings\Steve\Bureau\Blason Villages Suisse pour Wikipédia (par Delta-9)"
   inkscape:output_extension="org.inkscape.output.svg.inkscape">
  <metadata
     id="metadata31">
    <rdf:RDF>
      <cc:Work
         rdf:about="">
        <dc:format>image/svg+xml</dc:format>
        <dc:type
           rdf:resource="http://purl.org/dc/dcmitype/StillImage" />
        <dc:date>07-AUG-2006</dc:date>
        <dc:creator>
          <cc:Agent>
            <dc:title>Jérôme BLUM (wagner51)</dc:title>
          </cc:Agent>
        </dc:creator>
        <cc:license
           rdf:resource="http://creativecommons.org/licenses/GPL/2.0/" />
        <dc:coverage />
        <dc:description>Gabarit pour le Projet:Blasons de WIkipédia</dc:description>
        <dc:subject>
          <rdf:Bag>
            <rdf:li>blason suisse modèle gabarit projet blasons</rdf:li>
          </rdf:Bag>
        </dc:subject>
        <dc:language>fr</dc:language>
        <dc:title>Gabrit d'un blason suisse</dc:title>
      </cc:Work>
      <cc:License
         rdf:about="http://creativecommons.org/licenses/GPL/2.0/">
        <cc:permits
           rdf:resource="http://web.resource.org/cc/Reproduction" />
        <cc:permits
           rdf:resource="http://web.resource.org/cc/Distribution" />
        <cc:requires
           rdf:resource="http://web.resource.org/cc/Notice" />
        <cc:permits
           rdf:resource="http://web.resource.org/cc/DerivativeWorks" />
        <cc:requires
           rdf:resource="http://web.resource.org/cc/ShareAlike" />
        <cc:requires
           rdf:resource="http://web.resource.org/cc/SourceCode" />
      </cc:License>
    </rdf:RDF>
  </metadata>
  <defs
     id="defs29"><inkscape:perspective
   sodipodi:type="inkscape:persp3d"
   inkscape:vp_x="0 : 381.5 : 1"
   inkscape:vp_y="0 : 1000 : 0"
   inkscape:vp_z="603 : 381.5 : 1"
   inkscape:persp3d-origin="301.5 : 254.33333 : 1"
   id="perspective28" />
<linearGradient
   id="linearGradient2893">
  <stop
     style="stop-color:#ffffff;stop-opacity:0.3137255;"
     offset="0"
     id="stop2895" />
  <stop
     id="stop2897"
     offset="0.19"
     style="stop-color:#ffffff;stop-opacity:0.25098041;" />
  <stop
     style="stop-color:#6b6b6b;stop-opacity:0.1254902;"
     offset="0.60000002"
     id="stop2901" />
  <stop
     style="stop-color:#000000;stop-opacity:0.1254902;"
     offset="1"
     id="stop2899" />
</linearGradient>
<linearGradient
   id="linearGradient2955">
  <stop
     style="stop-color:white;stop-opacity:0;"
     offset="0"
     id="stop2965" />
  <stop
     style="stop-color:black;stop-opacity:0.64583331;"
     offset="1"
     id="stop2959" />
</linearGradient>
<radialGradient
   inkscape:collect="always"
   xlink:href="#linearGradient2893"
   id="radialGradient3236"
   gradientUnits="userSpaceOnUse"
   gradientTransform="matrix(1.215027,1.531577e-24,1.464684e-23,1.266667,-839.1924,-490.4894)"
   cx="858.04236"
   cy="579.93323"
   fx="858.04236"
   fy="579.93323"
   r="300" />
<inkscape:perspective
   id="perspective2715"
   inkscape:persp3d-origin="297.63751 : 280.63 : 1"
   inkscape:vp_z="595.27502 : 420.94501 : 1"
   inkscape:vp_y="0 : 1000 : 0"
   inkscape:vp_x="0 : 420.94501 : 1"
   sodipodi:type="inkscape:persp3d" />

	
	

	
	

		
		
	
			
			
		
			
			
		
				
				
			
				
				
			
				
				
			
				
				
			
					
					
					
					
					
					
					
					
				
					
					
					
					
				
					
					
				
					
					
					
					
					
				
					
					
					
					
					
					
					
					
				
					
					
					
					
				
					
					
				
					
					
					
					
					
				</defs>
  <sodipodi:namedview
     inkscape:window-height="780"
     inkscape:window-width="1248"
     inkscape:pageshadow="2"
     inkscape:pageopacity="0.0"
     guidetolerance="10.0"
     gridtolerance="10.0"
     objecttolerance="10.0"
     borderopacity="1.0"
     bordercolor="#666666"
     pagecolor="#ffffff"
     id="base"
     inkscape:zoom="0.63693582"
     inkscape:cx="309.08045"
     inkscape:cy="362.63399"
     inkscape:window-x="20"
     inkscape:window-y="42"
     inkscape:current-layer="layer2"
     showgrid="false"
     showguides="true"
     inkscape:guide-bbox="true">
    <sodipodi:guide
       orientation="horizontal"
       position="761.5"
       id="guide1885" />
    <sodipodi:guide
       orientation="vertical"
       position="1.5"
       id="guide1887" />
    <sodipodi:guide
       orientation="horizontal"
       position="1.5"
       id="guide1889" />
    <sodipodi:guide
       orientation="vertical"
       position="601.5"
       id="guide1891" />
    <sodipodi:guide
       orientation="vertical"
       position="301.50081"
       id="guide1893" />
  </sodipodi:namedview>
  <desc
     id="desc22">Coat of Arms of Canton of Freiburg (Fribourg)</desc>
  <g
     inkscape:groupmode="layer"
     id="layer1"
     inkscape:label="Fond écu"
     style="opacity:1;display:inline"
     sodipodi:insensitive="true">
    <path
       id="path1899"
       d="M 1.5,1.49998 L 1.5,460.3679 C 1.5,626.6785 135.81456,761.5 301.49999,761.5 C 467.18543,761.5 601.5,626.6785 601.5,460.3679 L 601.5,1.49998 L 1.5,1.49998 z"
       style="fill:#e20909;fill-opacity:1" />
    <path
       id="path2598"
       d="M 1.5000026,1.5 L 1.5000026,460.369 C 1.5000026,626.68 135.814,761.5 301.5,761.5 L 301.5,1.5 L 1.5000026,1.5 L 1.5000026,1.5 z"
       style="opacity:1;fill:#ffffff" />
  </g>
  <g
     inkscape:groupmode="layer"
     id="layer2"
     inkscape:label="Meubles"
     style="opacity:1;display:inline"
     sodipodi:insensitive="true">
    <line
       id="line2602"
       y2="761.49896"
       x2="301.49899"
       y1="1.5"
       x1="301.49899"
       style="fill:none;stroke:#000000;stroke-width:3" />
    <polygon
       id="polygon2612"
       points="370.187,257.604 370.187,289.828 343.376,289.828 343.376,257.604 316.171,257.604 316.171,289.828 301.537,289.828 301.537,317.298 393.562,317.298 393.562,257.604 370.187,257.604 "
       style="fill:#ffffff;stroke:#000000;stroke-width:3"
       transform="translate(-3.79974e-2,-4.4999953e-2)" />
    <rect
       id="rect2614"
       height="9.7720003"
       width="92.024002"
       y="317.25302"
       x="301.49899"
       style="fill:#ffffff;stroke:#000000;stroke-width:3" />
    <path
       id="path2616"
       d="M 301.499,327.026 L 301.499,440.031 C 317.75,440.031 330.924,453.205 330.924,469.456 L 330.924,524.686 L 393.524,524.686 L 393.524,327.026 L 301.499,327.026 z"
       style="fill:#ffffff;stroke:#000000;stroke-width:3" />
    <rect
       id="rect2618"
       height="35.569"
       width="62.599998"
       y="524.68597"
       x="330.92401"
       style="fill:#ffffff;stroke:#000000;stroke-width:3" />
    <path
       id="path2622"
       d="M 310.039,444.071 C 307.354,443.169 304.486,442.673 301.499,442.673 L 301.499,418.108 C 308.736,418.108 312.883,424.711 312.883,424.711 L 310.04,444.069 L 310.039,444.071 z"
       style="fill:#ffffff;stroke:#000000;stroke-width:3" />
    <path
       id="path2624"
       d="M 319.149,449.319 C 316.516,447.009 313.431,445.212 310.04,444.071 L 310.041,444.069 L 312.489,427.392 C 312.489,427.392 321.204,427.088 324.901,434.616 L 319.153,449.318 L 319.149,449.319 z"
       style="fill:#ffffff;stroke:#000000;stroke-width:3" />
    <path
       id="path2626"
       d="M 326.288,459.31 C 324.704,455.443 322.241,452.032 319.148,449.319 L 319.152,449.318 L 324.9,434.616 C 324.9,434.616 340.88,436.201 339.957,456.539 L 326.292,459.312 L 326.288,459.31 z"
       style="fill:#ffffff;stroke:#000000;stroke-width:3" />
    <path
       id="path2628"
       d="M 328.283,469.455 C 328.283,465.863 327.57,462.44 326.288,459.309 L 326.292,459.311 L 339.957,456.538 C 339.957,456.538 344.447,462.746 342.861,474.632 L 328.283,474.632 L 328.283,469.455 L 328.283,469.455 z"
       style="fill:#ffffff;stroke:#000000;stroke-width:3" />
    <path
       id="path2630"
       d="M 342.861,474.632 C 342.861,474.632 353.558,485.329 342.861,497.48 L 328.283,497.48 L 328.283,474.632 L 342.861,474.632 z"
       style="fill:#ffffff;stroke:#000000;stroke-width:3" />
    <rect
       id="rect2632"
       height="17.563999"
       width="14.578"
       y="497.48001"
       x="328.28302"
       style="fill:#ffffff;stroke:#000000;stroke-width:3" />
    <path
       id="path2634"
       d="M 342.861,515.044 C 342.861,515.044 342.994,515.044 344.314,515.044 C 347.484,515.044 349.464,516.232 349.464,519.402 C 349.464,522.572 349.464,528.779 349.464,531.684 C 349.464,534.589 347.484,535.249 344.314,535.249 C 341.144,535.249 328.283,535.249 328.283,535.249 L 328.283,515.043 L 342.861,515.043 L 342.861,515.044 z"
       style="fill:#ffffff;stroke:#000000;stroke-width:3" />
    <rect
       id="rect2636"
       height="25.004999"
       width="16.031"
       y="535.24994"
       x="328.28302"
       style="fill:#ffffff;stroke:#000000;stroke-width:3" />
    <polygon
       id="polygon2642"
       points="491.291,126.946 491.291,157.849 457.614,157.849 457.614,126.946 430.408,126.946 430.408,157.849 396.731,157.849 396.731,126.946 373.355,126.946 373.355,185.319 514.666,185.319 514.666,126.946 491.291,126.946 "
       style="fill:#ffffff;stroke:#000000;stroke-width:3"
       transform="translate(-3.79974e-2,-4.4999953e-2)" />
    <rect
       id="rect2644"
       height="9.7729998"
       width="113.313"
       y="185.274"
       x="387.31601"
       style="fill:#ffffff;stroke:#000000;stroke-width:3" />
    <rect
       id="rect2646"
       height="18.225"
       width="118.595"
       y="195.047"
       x="384.67599"
       style="fill:#ffffff;stroke:#000000;stroke-width:3" />
    <rect
       id="rect2648"
       height="334.12799"
       width="100.899"
       y="213.272"
       x="393.52402"
       style="fill:#ffffff;stroke:#000000;stroke-width:3" />
    <rect
       id="rect2650"
       height="27.997999"
       width="100.899"
       y="547.40094"
       x="393.52402"
       style="fill:#ffffff;stroke:#000000;stroke-width:3" />
    <path
       id="path2654"
       d="M 443.974,331.955 C 439.306,331.955 435.521,335.74 435.521,340.407 L 435.521,375.449 L 452.425,375.449 L 452.425,340.407 C 452.425,335.74 448.641,331.955 443.974,331.955 z" />
    <path
       id="path2656"
       d="M 443.974,238.893 C 439.306,238.893 435.521,242.677 435.521,247.345 L 435.521,288.198 L 452.425,288.198 L 452.425,247.345 C 452.425,242.677 448.641,238.893 443.974,238.893 z" />
    <polygon
       id="polygon2664"
       points="232.888,257.604 232.888,289.828 259.698,289.828 259.698,257.604 286.903,257.604 286.903,289.828 301.537,289.828 301.537,317.298 209.512,317.298 209.512,257.604 232.888,257.604 "
       style="fill:#e20909;stroke:#000000;stroke-width:3"
       transform="translate(-3.79974e-2,-4.4999953e-2)" />
    <rect
       id="rect2666"
       height="9.7720003"
       width="92.025002"
       y="317.25302"
       x="209.474"
       style="fill:#e20909;stroke:#000000;stroke-width:3" />
    <path
       id="path2668"
       d="M 301.499,327.026 L 301.499,440.031 C 285.248,440.031 272.074,453.205 272.074,469.456 L 272.074,524.686 L 209.474,524.686 L 209.474,327.026 L 301.499,327.026 z"
       style="fill:#e20909;stroke:#000000;stroke-width:3" />
    <rect
       id="rect2670"
       height="35.569"
       width="62.599998"
       y="524.68597"
       x="209.474"
       style="fill:#e20909;stroke:#000000;stroke-width:3" />
    <path
       id="path2674"
       d="M 292.959,444.071 C 295.643,443.169 298.512,442.673 301.499,442.673 L 301.499,418.108 C 294.261,418.108 290.115,424.711 290.115,424.711 L 292.958,444.069 L 292.959,444.071 z"
       style="fill:#e20909;stroke:#000000;stroke-width:3" />
    <path
       id="path2676"
       d="M 283.85,449.319 C 286.482,447.009 289.568,445.212 292.959,444.071 L 292.958,444.069 L 290.51,427.392 C 290.51,427.392 281.795,427.088 278.098,434.616 L 283.847,449.318 L 283.85,449.319 z"
       style="fill:#e20909;stroke:#000000;stroke-width:3" />
    <path
       id="path2678"
       d="M 276.71,459.31 C 278.294,455.443 280.756,452.032 283.85,449.319 L 283.847,449.318 L 278.098,434.616 C 278.098,434.616 262.118,436.201 263.042,456.539 L 276.706,459.312 L 276.71,459.31 z"
       style="fill:#e20909;stroke:#000000;stroke-width:3" />
    <path
       id="path2680"
       d="M 274.715,469.455 C 274.715,465.863 275.427,462.44 276.71,459.309 L 276.706,459.311 L 263.042,456.538 C 263.042,456.538 258.552,462.746 260.137,474.632 L 274.716,474.632 L 274.716,469.455 L 274.715,469.455 z"
       style="fill:#e20909;stroke:#000000;stroke-width:3" />
    <path
       id="path2682"
       d="M 260.137,474.632 C 260.137,474.632 249.439,485.329 260.137,497.48 L 274.716,497.48 L 274.716,474.632 L 260.137,474.632 z"
       style="fill:#e20909;stroke:#000000;stroke-width:3" />
    <rect
       id="rect2684"
       height="17.563999"
       width="14.579"
       y="497.48001"
       x="260.13699"
       style="fill:#e20909;stroke:#000000;stroke-width:3" />
    <path
       id="path2686"
       d="M 260.137,515.044 C 260.137,515.044 260.005,515.044 258.684,515.044 C 255.515,515.044 253.534,516.232 253.534,519.402 C 253.534,522.572 253.534,528.779 253.534,531.684 C 253.534,534.589 255.515,535.249 258.684,535.249 C 261.854,535.249 274.716,535.249 274.716,535.249 L 274.716,515.043 L 260.137,515.043 L 260.137,515.044 z"
       style="fill:#e20909;stroke:#000000;stroke-width:3" />
    <rect
       id="rect2688"
       height="25.004999"
       width="16.032"
       y="535.24994"
       x="258.68399"
       style="fill:#e20909;stroke:#000000;stroke-width:3" />
    <polygon
       id="polygon2694"
       points="111.783,126.946 111.783,157.849 145.46,157.849 145.46,126.946 172.666,126.946 172.666,157.849 206.343,157.849 206.343,126.946 229.719,126.946 229.719,185.319 88.407,185.319 88.407,126.946 111.783,126.946 "
       style="fill:#e20909;stroke:#000000;stroke-width:3"
       transform="translate(-3.79974e-2,-4.4999953e-2)" />
    <rect
       id="rect2696"
       height="9.7729998"
       width="113.313"
       y="185.274"
       x="102.368"
       style="fill:#e20909;stroke:#000000;stroke-width:3" />
    <rect
       id="rect2698"
       height="18.225"
       width="118.595"
       y="195.047"
       x="99.727997"
       style="fill:#e20909;stroke:#000000;stroke-width:3" />
    <rect
       id="rect2700"
       height="334.12799"
       width="100.898"
       y="213.272"
       x="108.576"
       style="fill:#e20909;stroke:#000000;stroke-width:3" />
    <rect
       id="rect2702"
       height="27.997999"
       width="100.898"
       y="547.40094"
       x="108.576"
       style="fill:#e20909;stroke:#000000;stroke-width:3" />
    <path
       id="path2706"
       d="M 159.025,331.955 C 163.693,331.955 167.477,335.74 167.477,340.407 L 167.477,375.449 L 150.573,375.449 L 150.573,340.407 C 150.573,335.74 154.358,331.955 159.025,331.955 z" />
    <path
       id="path2708"
       d="M 159.025,238.893 C 163.693,238.893 167.477,242.677 167.477,247.345 L 167.477,288.198 L 150.573,288.198 L 150.573,247.345 C 150.573,242.677 154.358,238.893 159.025,238.893 z" />
  </g>
  <g
     inkscape:groupmode="layer"
     id="layer3"
     inkscape:label="Reflet final"
     style="display:inline"
     sodipodi:insensitive="true">
    <path
       style="fill:url(#radialGradient3236);fill-opacity:1"
       d="M 1.5,1.5 L 1.5,460.3679 C 1.5,626.67854 135.81454,761.5 301.49993,761.5 C 467.1854,761.5 601.5,626.67854 601.5,460.3679 L 601.5,1.5 L 1.5,1.5 z"
       id="path2346" />
  </g>
  <g
     inkscape:groupmode="layer"
     id="layer4"
     inkscape:label="Contour final"
     style="display:inline"
     sodipodi:insensitive="true">
    <path
       style="fill:none;fill-opacity:1;stroke:#000000;stroke-width:3;stroke-miterlimit:4;stroke-dasharray:none;stroke-opacity:1"
       d="M 1.5,1.5 L 1.5,460.36794 C 1.5,626.67854 135.81454,761.5 301.49993,761.5 C 467.1854,761.5 601.5,626.67854 601.5,460.36794 L 601.5,1.5 L 1.5,1.5 z"
       id="path3239" />
  </g>
</svg>
